X: 8264
T: Corkadoragha
R: reel
M: 4/4
K: Gmajor
|:"G"G2BG EGDG|"Am"AAcA FAEF|"G"G2BG EFGB|"C"cdef gedB|
"G"G2BG EGDG|"Am"AAcA FAEF|"G"~G3A Bcde|1 "D"gedB cAFD:|2 "D"gedB cdef||
|:"G"g3f gede|"Am"a2ab aged|"G"~g3f gede|"Am"bage aged|
"G"~g3f gede|"Am"a3b aged|"G"~g3f g>z ba|1 "D"gedB cdef:|2 "D"gedB cAFD||

